assets/compare/saving.svg

<svg width="28" height="29" viewBox="0 0 28 29" fill="none" xmlns="http://www.w3.org/2000/svg">
<path d="M11.6663 24.2335H6.99967V26.5669H4.66634V24.2335H3.49967C3.19026 24.2335 2.89351 24.1106 2.67472 23.8918C2.45592 23.673 2.33301 23.3763 2.33301 23.0669V5.56685C2.33301 5.25743 2.45592 4.96069 2.67472 4.74189C2.89351 4.5231 3.19026 4.40018 3.49967 4.40018H11.6663V2.75518C11.6664 2.67051 11.6849 2.58685 11.7205 2.51004C11.7561 2.43322 11.808 2.36508 11.8726 2.31035C11.9372 2.25562 12.013 2.21561 12.0946 2.1931C12.1763 2.1706 12.2618 2.16613 12.3453 2.18002L24.691 4.23802C24.9634 4.28331 25.2109 4.42376 25.3895 4.6344C25.5681 4.84504 25.6662 5.11219 25.6663 5.38835V7.90018H26.833V10.2335H25.6663V18.4002H26.833V20.7335H25.6663V23.2454C25.6662 23.5215 25.5681 23.7887 25.3895 23.9993C25.2109 24.2099 24.9634 24.3504 24.691 24.3957L23.333 24.622V26.5669H20.9997V25.0117L12.3453 26.4537C12.2618 26.4676 12.1763 26.4631 12.0946 26.4406C12.013 26.4181 11.9372 26.3781 11.8726 26.3234C11.808 26.2686 11.7561 26.2005 11.7205 26.1237C11.6849 26.0468 11.6664 25.9632 11.6663 25.8785V24.2335ZM13.9997 23.8135L23.333 22.2572V6.37652L13.9997 4.82135V23.8124V23.8135ZM19.2497 17.2335C18.2837 17.2335 17.4997 15.9269 17.4997 14.3169C17.4997 12.7069 18.2837 11.4002 19.2497 11.4002C20.2157 11.4002 20.9997 12.7069 20.9997 14.3169C20.9997 15.9269 20.2157 17.2335 19.2497 17.2335Z" fill="#5BB5A2"/>
</svg>

<svg xmlns="http://www.w3.org/2000/svg" width="28" height="29" fill="none"><path fill="#5BB5A2" d="M11.666 24.233H7v2.334H4.666v-2.334H3.5a1.167 1.167 0 0 1-1.167-1.166v-17.5A1.167 1.167 0 0 1 3.5 4.4h8.166V2.755a.585.585 0 0 1 .68-.575L24.69 4.238a1.167 1.167 0 0 1 .975 1.15V7.9h1.167v2.333h-1.167V18.4h1.167v2.334h-1.167v2.511a1.166 1.166 0 0 1-.975 1.15l-1.358.227v1.945H21v-1.555l-8.655 1.442a.583.583 0 0 1-.679-.576v-1.645Zm2.334-.42 9.333-1.556V6.377L14 4.82v18.993Zm5.25-6.58c-.966 0-1.75-1.306-1.75-2.916 0-1.61.784-2.917 1.75-2.917S21 12.707 21 14.317c0 1.61-.784 2.916-1.75 2.916Z"/></svg>
